X: 8705
T: Crowley's
R: reel
M: 4/4
K: Dmajor
|f2ed edBc|dBcA BAFA|B2AF AFDF|GEFD EDB,B,|
fddd eccc|dBcA BAFA|BcdB AGFD|EFGE FDD2|
Addc dAFA|B2dB cAAd|BdAd GdFd|EFGE FDD2|
Addc dAFA|B2dB cAA2|B2AB GB FA|EFGE FDD2|

